X: 209
T: WALTZ: Looking at a Rainbow
T: Looking at a Rainbow Through a Dirty Window
C: C: Calum Stewart; S: Various
C: Set Leaders: Olya, Tania
Z: Anton Zille ed., Oleg Naumov arr.; Bregolas at The Session
N: https://thesession.org/members/26966/sets/92070
R: Waltz
M: 3/4
L: 1/8
Q: 1/4=144
K: Gmaj
DGA|:"G"Bd AB GA|"D"F2 FG FD|"C"E6-|"D"E3 DGA|
"G (Em)"Bd AB GA|"D"F2 FG FD|"C"G6-|1 "G"G3 DGA:|2 "D"GA Bd gf||
|:"Em"e2 B2 gf|"C"e2 c2 gf|"D"ed ef ga|"G"b2 ba "D/F#"gf|
"Em"e2 B2 gf|"C"e2 c2 gf|"D"ed ef ga|1 "G"g4 "D/F#"gf:|2 "C"g3||

